configs/marketplace-logos/blockVision.svg

<svg width="94" height="94" viewBox="0 0 94 94" fill="none" xmlns="http://www.w3.org/2000/svg">
<path d="M0 47C0 26.0709 0 15.6064 5.78533 8.66695C6.60465 7.68418 7.49789 6.76874 8.45684 5.92906C15.228 0 25.4389 0 45.8606 0H48.1394C68.5611 0 78.772 0 85.5432 5.92906C86.5021 6.76874 87.3954 7.68418 88.2147 8.66695C94 15.6064 94 26.0709 94 47C94 67.9291 94 78.3936 88.2147 85.333C87.3954 86.3158 86.5021 87.2313 85.5432 88.0709C78.772 94 68.5611 94 48.1394 94H45.8606C25.4389 94 15.228 94 8.45684 88.0709C7.49789 87.2313 6.60465 86.3158 5.78533 85.333C0 78.3936 0 67.9291 0 47Z" fill="#5C33FF"/>
<path d="M29.0006 23.3187L29.0006 43.951L35.1933 47.5007L29 51.0509L29 71.6832L46.9997 82L64.9994 71.6832L64.9994 51.0494L58.8067 47.5002L65 43.9506L65 23.3168L46.9988 13L29.0006 23.3187ZM45.7368 16.6228L45.7368 32.9101L31.5283 41.0554L31.5283 24.7681L45.7368 16.6228ZM31.5271 70.2343L31.5271 53.9455L45.7368 62.0896L45.7368 78.3784L31.5271 70.2343ZM48.2633 78.379L48.2633 62.0902L62.4731 53.9461L62.4731 70.2349L48.2633 78.379ZM61.2086 51.7741L47 59.9181L32.7914 51.7741L37.7214 48.9487L47 54.2669L56.2796 48.9487L61.2086 51.7741ZM40.2473 47.5005L47 43.63L53.7527 47.5005L47 51.3705L40.2473 47.5005ZM47 40.7324L37.7204 46.0511L32.7914 43.2258L47 35.0817L61.2098 43.2258L56.2798 46.0511L47 40.7324ZM62.4728 24.7662L62.4728 41.0534L48.263 32.9087L48.263 16.6215L62.4728 24.7662Z" fill="white"/>
<path d="M62.4728 24.7662L62.4728 41.0534L48.263 32.9087L48.263 16.6215L62.4728 24.7662Z" fill="white"/>
<path d="M31.5271 70.2343L31.5271 53.9455L45.7368 62.0896L45.7368 78.3784L31.5271 70.2343Z" fill="white"/>
<path d="M40.2473 47.5005L47 43.63L53.7527 47.5005L47 51.3705L40.2473 47.5005Z" fill="white"/>
</svg>

<svg xmlns="http://www.w3.org/2000/svg" fill="none" viewBox="0 0 94 94">
  <path fill="#5C33FF" d="M0 47C0 26.07 0 15.606 5.785 8.667a24.442 24.442 0 0 1 2.672-2.738C15.228 0 25.439 0 45.86 0h2.278C68.56 0 78.771 0 85.542 5.93c.96.839 1.852 1.754 2.672 2.737C94 15.607 94 26.07 94 47s0 31.394-5.785 38.333a24.435 24.435 0 0 1-2.672 2.738C78.772 94 68.561 94 48.14 94h-2.278c-20.422 0-30.633 0-37.404-5.93a24.433 24.433 0 0 1-2.672-2.737C0 78.393 0 67.929 0 47Z"/>
  <path fill="#fff" d="M29 23.319V43.95l6.193 3.55L29 51.05v20.632L47 82l18-10.317V51.05l-6.194-3.55L65 43.95V23.318L46.999 13 29 23.319Zm16.737-6.696V32.91l-14.209 8.145V24.768l14.209-8.145Zm-14.21 53.611V53.946l14.21 8.144v16.288l-14.21-8.144Zm16.736 8.145V62.09l14.21-8.144v16.289l-14.21 8.144ZM61.21 51.774 47 59.918l-14.209-8.144 4.93-2.825L47 54.267l9.28-5.318 4.929 2.825Zm-20.962-4.273L47 43.63l6.753 3.87L47 51.37l-6.753-3.87ZM47 40.732l-9.28 5.32-4.929-2.826L47 35.082l14.21 8.144-4.93 2.825L47 40.732Zm15.473-15.966v16.287l-14.21-8.144V16.622l14.21 8.144Z"/>
  <path fill="#fff" d="M62.473 24.766v16.287l-14.21-8.144V16.622l14.21 8.144ZM31.527 70.234V53.946l14.21 8.144v16.288l-14.21-8.144Zm8.72-22.734L47 43.63l6.753 3.87L47 51.37l-6.753-3.87Z"/>
</svg>
